X: 25791
T: Mason's Apron, The
R: reel
M: 4/4
K: Amajor
af|:ec~c2 BFAF|EFAB BcBA|FB~B2 cB~B2|cefg ~a3f|
ec~c2 BFAF|EFAB c2Bc|dcde fa{b}af|1 edcB A2af:|2 edcB A2AB||
{c}BA[eA]A [fA]A[eA]A|{c}BA[eA]A [fA]A[eA]A|df~f2 af~f2|df~f2 afec|
Ac[ec]c [fc]c[ec]c|Ac[ec]c [fc]c[ec]c|dcde fa{b}af|1 edcB A2AB:|2 edcB A2af||

